lib/brands/icons/amazon-pay.svg

<svg xmlns="http://www.w3.org/2000/svg" fill="none" aria-hidden="true" viewBox="0 0 48 48"><g id="amazon-pay-Icon"><g id="Group"><path id="Vector" fill="#221F1F" d="M14.3404 11.5098L14.0589 11.549C13.159 11.6601 12.3027 12.0004 11.572 12.5373C11.415 12.6485 11.271 12.7663 11.1074 12.8907C11.0935 12.8618 11.0846 12.8309 11.0812 12.799C11.055 12.6223 11.0288 12.4391 10.9961 12.2624C10.9503 11.9613 10.7998 11.8305 10.4987 11.8305H9.74612C9.29455 11.8305 9.20947 11.9155 9.20947 12.3671V26.0648C9.20947 26.1302 9.20947 26.1956 9.21602 26.2611C9.22911 26.4574 9.34691 26.5818 9.5367 26.5883C9.99481 26.5949 10.4595 26.5949 10.9176 26.5883C11.1074 26.5883 11.2252 26.4574 11.2448 26.2611C11.2514 26.1956 11.2514 26.1302 11.2514 26.0648V21.3265C11.3233 21.3854 11.3626 21.4182 11.3953 21.4509C12.5668 22.426 13.915 22.7467 15.3875 22.4587C16.7226 22.197 17.6519 21.3789 18.254 20.1747C18.7121 19.265 18.9019 18.2964 18.9281 17.2886C18.9608 16.1695 18.8495 15.07 18.398 14.0294C17.8417 12.7467 16.9189 11.9024 15.5249 11.6145C15.3155 11.5687 15.0995 11.549 14.8836 11.5163C14.7003 11.5098 14.5236 11.5098 14.3404 11.5098ZM11.2383 14.2519C11.2345 14.2091 11.243 14.1661 11.2627 14.1279C11.2824 14.0897 11.3125 14.0578 11.3495 14.036C12.2461 13.4142 13.2343 13.087 14.3338 13.1721C15.3089 13.2441 16.1074 13.7218 16.5262 14.8671C16.7815 15.5674 16.8469 16.2938 16.8469 17.0268C16.8469 17.7074 16.7946 18.375 16.5851 19.0294C16.1401 20.4234 15.1192 20.9535 13.7972 20.8946C12.8809 20.8553 12.0825 20.5019 11.3495 19.9849C11.313 19.9626 11.2832 19.9306 11.2636 19.8925C11.244 19.8544 11.2352 19.8117 11.2383 19.7689C11.2448 18.8462 11.2383 17.9299 11.2383 17.0072C11.2383 16.0844 11.2448 15.1747 11.2383 14.2519ZM24.7003 11.5098C24.6349 11.5163 24.5694 11.5294 24.5105 11.536C23.8728 11.5629 23.2392 11.6527 22.6192 11.8043C22.2199 11.909 21.8338 12.053 21.4477 12.1839C21.2121 12.2624 21.0943 12.4326 21.1008 12.6878C21.1074 12.9038 21.0943 13.1197 21.1008 13.3357C21.1074 13.6498 21.2383 13.7349 21.5459 13.6564C22.0563 13.5255 22.5668 13.3815 23.0838 13.2833C23.8888 13.1328 24.7003 13.0674 25.5184 13.1917C25.9438 13.2572 26.343 13.3815 26.6179 13.7415C26.86 14.0556 26.9516 14.4286 26.9647 14.8148C26.9843 15.3579 26.9778 15.9011 26.9843 16.4443C26.9828 16.4752 26.9784 16.5059 26.9713 16.536C26.9385 16.5294 26.9124 16.536 26.8862 16.5294C26.1991 16.36 25.4982 16.2527 24.7919 16.2087C24.0524 16.1695 23.3194 16.2153 22.6126 16.464C21.7684 16.7585 21.0877 17.2689 20.6885 18.0935C20.3809 18.7349 20.3351 19.4155 20.4333 20.1027C20.5642 21.0189 21.0223 21.7257 21.8338 22.1773C22.6126 22.6093 23.4569 22.6616 24.3142 22.5307C25.3024 22.3802 26.1794 21.9614 26.9516 21.3265C26.9832 21.298 27.0184 21.2738 27.0563 21.2545C27.0956 21.5032 27.1283 21.7388 27.1741 21.9744C27.2134 22.1773 27.3377 22.3082 27.5275 22.3148C27.8809 22.3213 28.2409 22.3213 28.5943 22.3148C28.6763 22.3141 28.7548 22.2817 28.8134 22.2243C28.872 22.167 28.9061 22.0891 28.9084 22.0072C28.9139 21.9462 28.9161 21.8851 28.915 21.8239V14.8867C28.9182 14.6042 28.8985 14.3219 28.8561 14.0425C28.7317 13.1983 28.3718 12.5045 27.6126 12.053C27.1741 11.7912 26.6898 11.6603 26.1859 11.5883C25.9503 11.5556 25.7147 11.536 25.4791 11.5032C25.2239 11.5098 24.9621 11.5098 24.7003 11.5098ZM26.9909 19.8671C26.9934 19.9056 26.9856 19.944 26.9683 19.9785C26.9511 20.013 26.925 20.0423 26.8927 20.0634C26.1597 20.5935 25.3548 20.947 24.4451 21.0386C24.072 21.0778 23.699 21.0648 23.3456 20.9208C23.1514 20.8498 22.9767 20.7339 22.8357 20.5827C22.6947 20.4314 22.5913 20.2491 22.5341 20.0504C22.4043 19.6374 22.4021 19.195 22.5275 18.7807C22.6911 18.2375 23.0773 17.9299 23.6008 17.7598C24.1263 17.6013 24.6787 17.5523 25.2239 17.6158C25.7736 17.6616 26.3103 17.7663 26.86 17.8383C26.9647 17.8514 26.9974 17.9038 26.9974 18.0085C26.9909 18.3226 26.9974 18.6302 26.9974 18.9443C26.9974 19.2585 26.9843 19.5595 26.9909 19.8671ZM35.3548 20.2729C34.5105 17.9365 33.6663 15.5979 32.822 13.2572C32.6912 12.8841 32.5472 12.5176 32.4097 12.1511C32.3377 11.9614 32.2003 11.837 31.9909 11.837C31.4935 11.8305 30.9961 11.8239 30.4922 11.8305C30.3286 11.8305 30.25 11.9614 30.2828 12.125C30.3143 12.2609 30.3558 12.3944 30.4071 12.5242C31.6898 15.6983 32.9791 18.8723 34.2749 22.0464C34.3862 22.3148 34.4124 22.5438 34.288 22.8187C34.072 23.2964 33.9019 23.8004 33.6794 24.2781C33.483 24.7035 33.1558 25.0242 32.6846 25.1485C32.356 25.2344 32.0143 25.2588 31.6768 25.2205C31.5131 25.2074 31.3495 25.1682 31.1859 25.1551C30.9634 25.142 30.8521 25.2401 30.8456 25.4692C30.8391 25.6874 30.8391 25.9033 30.8456 26.1171C30.8521 26.4771 30.9765 26.6407 31.3299 26.6996C31.6946 26.7722 32.0644 26.8159 32.4359 26.8305C33.555 26.8566 34.4451 26.4051 35.021 25.4299C35.2528 25.0449 35.4541 24.6422 35.6231 24.2257C37.1741 20.3121 38.7143 16.3942 40.2435 12.4718C40.2913 12.356 40.3264 12.2353 40.3482 12.1119C40.3744 11.9286 40.2893 11.8239 40.1061 11.8239C39.6741 11.8174 39.2357 11.8239 38.8037 11.8239C38.6938 11.8162 38.5844 11.8456 38.4931 11.9072C38.4018 11.9689 38.3337 12.0594 38.2998 12.1642C38.2671 12.2559 38.2278 12.3409 38.1951 12.4326L35.9176 18.9771C35.754 19.4483 35.5838 19.926 35.4137 20.4299C35.3875 20.3579 35.3744 20.3187 35.3548 20.2729Z"/><path id="Vector_2" fill="#FF9900" d="M4 28.5386C4.15052 28.2638 4.34031 28.218 4.63482 28.375C5.31545 28.7415 5.98298 29.1211 6.6767 29.468C9.33163 30.7918 12.129 31.8085 15.0144 32.4981C16.3787 32.8272 17.7593 33.085 19.1505 33.2703C21.2108 33.5472 23.2896 33.661 25.3678 33.6106C26.5065 33.5844 27.6453 33.4928 28.7775 33.3619C32.4535 32.9334 36.0511 31.9905 39.4647 30.5609C39.6545 30.4824 39.8508 30.43 40.0602 30.4823C40.4987 30.6002 40.6492 31.0714 40.3285 31.392C40.1335 31.5713 39.9233 31.7334 39.7003 31.8763C37.6911 33.2572 35.4987 34.2585 33.1819 35.0111C31.5777 35.5282 29.9339 35.9134 28.267 36.163C27.1141 36.3396 25.9513 36.4445 24.7853 36.4771C24.7305 36.4804 24.6758 36.487 24.6217 36.4967H23.2408C23.1867 36.487 23.1321 36.4804 23.0772 36.4771C22.8416 36.464 22.606 36.4575 22.377 36.4509C21.2716 36.4008 20.1702 36.285 19.0785 36.1041C17.2861 35.8119 15.5246 35.354 13.8168 34.7363C10.3036 33.4693 7.06818 31.536 4.28796 29.0426C4.17016 28.9378 4.09162 28.7939 4 28.6695V28.5386ZM44 28.3358C43.9346 28.0085 43.6859 27.8842 43.4044 27.7926C42.9583 27.6523 42.4969 27.5666 42.0301 27.5373C41.1732 27.4642 40.3104 27.506 39.4647 27.6617C38.5288 27.8384 37.6387 28.1394 36.8469 28.6826C36.7526 28.7432 36.6705 28.8209 36.6047 28.9117C36.5818 28.9508 36.5671 28.9942 36.5614 29.0392C36.5558 29.0842 36.5594 29.1299 36.572 29.1735C36.5982 29.2716 36.7094 29.2978 36.8076 29.2913C36.8557 29.2923 36.9038 29.2902 36.9516 29.2847C37.462 29.2323 37.966 29.1734 38.4764 29.1211C39.2225 29.0491 39.9751 29.0033 40.7212 29.0622C41.0406 29.0887 41.3563 29.1479 41.6636 29.2389C41.9974 29.3305 42.1479 29.5792 42.161 29.9195C42.1872 30.4431 42.0694 30.947 41.9319 31.4444C41.6636 32.4522 41.2775 33.4274 40.8979 34.396C40.8702 34.4593 40.8483 34.525 40.8325 34.5923C40.7997 34.7821 40.911 34.9064 41.1008 34.8606C41.2179 34.8343 41.3262 34.7779 41.4149 34.697C41.7102 34.4225 41.9878 34.1296 42.2461 33.82C43.0838 32.7467 43.5746 31.5098 43.8626 30.1813C43.9149 29.9457 43.9542 29.7036 44 29.468V28.3358Z"/></g></g></svg>

<svg xmlns="http://www.w3.org/2000/svg" fill="none" aria-hidden="true" viewBox="0 0 48 48"><path fill="#221F1F" d="m14.34 11.51-.281.039c-.9.111-1.756.451-2.487.988-.157.111-.301.23-.465.354a.28.28 0 0 1-.026-.092c-.026-.177-.052-.36-.085-.537-.046-.3-.196-.431-.497-.431h-.753c-.451 0-.537.085-.537.536v13.698c0 .065 0 .13.007.196.013.196.13.32.32.327.459.007.924.007 1.382 0 .19 0 .307-.13.327-.327.006-.065.006-.13.006-.196v-4.739c.072.06.112.092.144.125 1.172.975 2.52 1.296 3.992 1.008 1.336-.262 2.265-1.08 2.867-2.284.458-.91.648-1.879.674-2.886.033-1.12-.079-2.219-.53-3.26-.556-1.282-1.48-2.127-2.873-2.415-.21-.045-.425-.065-.641-.098-.184-.006-.36-.006-.544-.006Zm-3.102 2.742a.227.227 0 0 1 .112-.216c.896-.622 1.884-.949 2.984-.864.975.072 1.773.55 2.192 1.695.256.7.32 1.427.32 2.16 0 .68-.051 1.348-.26 2.002-.446 1.394-1.467 1.924-2.789 1.866-.916-.04-1.715-.393-2.447-.91a.234.234 0 0 1-.112-.216c.007-.923 0-1.84 0-2.762 0-.923.007-1.832 0-2.755ZM24.7 11.51c-.065.006-.13.02-.19.026a9.68 9.68 0 0 0-1.89.268c-.4.105-.786.249-1.172.38-.236.078-.354.249-.347.504.006.216-.007.432 0 .648.006.314.137.399.445.32.51-.13 1.02-.274 1.538-.373.805-.15 1.616-.216 2.434-.091.426.065.825.19 1.1.55.242.314.334.687.347 1.073.02.543.013 1.086.02 1.63a.507.507 0 0 1-.014.091c-.032-.007-.059 0-.085-.007a11.819 11.819 0 0 0-2.094-.32c-.74-.04-1.473.006-2.18.255-.844.295-1.524.805-1.923 1.63-.308.64-.354 1.322-.256 2.009.131.916.59 1.623 1.4 2.074.78.432 1.624.485 2.481.354.988-.15 1.865-.57 2.638-1.204a.485.485 0 0 1 .104-.073c.04.25.072.485.118.72.04.203.164.334.354.34.353.007.713.007 1.066 0a.317.317 0 0 0 .314-.307 1.7 1.7 0 0 0 .007-.183v-6.937a5.231 5.231 0 0 0-.059-.845c-.124-.844-.484-1.537-1.243-1.989-.439-.262-.923-.393-1.427-.465-.236-.032-.471-.052-.707-.085-.255.007-.517.007-.779.007Zm2.29 8.357a.217.217 0 0 1-.097.196c-.733.53-1.538.884-2.448.976-.373.039-.746.026-1.1-.118a1.314 1.314 0 0 1-.81-.87 2.154 2.154 0 0 1-.008-1.27c.164-.543.55-.851 1.074-1.021a4.013 4.013 0 0 1 1.623-.144c.55.046 1.086.15 1.636.222.105.013.137.066.137.17-.006.315 0 .622 0 .936 0 .315-.013.616-.006.923Zm8.365.406c-.844-2.337-1.689-4.675-2.533-7.016-.13-.373-.275-.74-.412-1.106-.072-.19-.21-.314-.42-.314-.496-.006-.994-.013-1.498-.006-.163 0-.242.13-.21.294.032.136.074.27.125.4 1.283 3.173 2.572 6.347 3.868 9.521.111.269.137.498.013.773-.216.477-.386.981-.609 1.46-.196.424-.523.745-.994.87-.329.085-.67.11-1.008.072-.164-.014-.328-.053-.491-.066-.223-.013-.334.085-.34.314a10 10 0 0 0 0 .648c.006.36.13.524.484.583.365.072.734.116 1.106.13 1.119.027 2.01-.425 2.585-1.4.232-.385.433-.788.602-1.204 1.551-3.914 3.091-7.832 4.62-11.754.048-.116.083-.237.105-.36.026-.183-.059-.288-.242-.288-.432-.007-.87 0-1.302 0a.494.494 0 0 0-.504.34c-.033.092-.072.177-.105.269l-2.277 6.544c-.164.471-.334.949-.504 1.453-.026-.072-.04-.111-.06-.157Z"/><path fill="#F90" d="M4 28.539c.15-.275.34-.321.635-.164.68.366 1.348.746 2.042 1.093a39.003 39.003 0 0 0 8.337 3.03c1.365.33 2.745.587 4.137.772a39.4 39.4 0 0 0 6.217.34 37.161 37.161 0 0 0 3.41-.248 39.509 39.509 0 0 0 10.687-2.801c.19-.079.386-.131.595-.079.439.118.59.59.268.91-.195.18-.405.341-.628.484-2.009 1.381-4.201 2.382-6.518 3.135a30.968 30.968 0 0 1-4.915 1.152 28.2 28.2 0 0 1-3.482.314c-.055.003-.11.01-.163.02H23.24a1.404 1.404 0 0 0-.164-.02 24.15 24.15 0 0 0-.7-.026 29.357 29.357 0 0 1-8.56-1.715 29.015 29.015 0 0 1-9.529-5.693c-.118-.105-.196-.25-.288-.373v-.131Zm40-.203c-.065-.327-.314-.452-.596-.543a5.79 5.79 0 0 0-1.374-.256 9.642 9.642 0 0 0-2.565.125c-.936.176-1.826.477-2.618 1.02a.9.9 0 0 0-.242.23.336.336 0 0 0-.033.262c.026.098.137.124.236.117.048.001.096 0 .144-.006.51-.053 1.014-.112 1.524-.164.746-.072 1.5-.118 2.245-.059.32.027.635.086.943.177.333.091.484.34.497.68.026.524-.092 1.028-.23 1.525-.267 1.008-.653 1.983-1.033 2.952a1.13 1.13 0 0 0-.066.196c-.032.19.079.314.269.269a.69.69 0 0 0 .314-.164c.295-.275.573-.567.831-.877.838-1.073 1.329-2.31 1.617-3.639.052-.235.091-.477.137-.713v-1.132Z"/></svg>
